img/icons/logo_blue.svg

<svg width="210" height="44" viewBox="0 0 210 44" fill="none" xmlns="http://www.w3.org/2000/svg">
<path d="M70.2194 14.1719H89.1578L88.2217 18.5606H76.2004L75.757 20.7106H85.4923L84.5562 25.0994H74.821L74.3283 27.4663H86.9407L85.9554 32.0819H66.4258L70.2194 14.1719Z" fill="#004EA6"/>
<path d="M93.0281 14.1719H99.962L98.6582 20.3689L106.343 14.1719H115.726L106.886 20.6353L112.664 32.0819H104.051L100.772 24.7995L97.1963 27.2664L96.1888 32.0819H89.2549L93.0281 14.1719Z" fill="#004EA6"/>
<path d="M122.678 18.7111H116.22L117.186 14.1719H137.082L136.116 18.7111H129.628L126.789 32.0819H119.838L122.678 18.7111Z" fill="#004EA6"/>
<path d="M139.116 14.1719H152.497C156.984 14.1719 159.321 15.8485 159.321 18.6888C159.321 23.1762 155.623 25.7897 150.032 25.7897H143.573L142.242 32.0819H135.31L139.116 14.1719ZM145.23 18.0182L144.421 21.8842H148.217C150.288 21.8842 151.689 21.3122 151.689 19.3398C151.708 18.3042 150.801 18.0083 149.026 18.0083H145.23V18.0182Z" fill="#004EA6"/>
<path d="M161.36 27.7523C162.001 27.9684 162.563 28.096 163.085 28.096C164.119 28.096 164.937 27.6247 165.528 26.6427L159.715 14.1719H167.302L169.647 22.0079L174.485 14.1817H182.447L172.298 27.0944C170.347 29.569 169.657 30.1876 168.948 30.8062C167.588 32.0337 165.716 32.4756 164.041 32.4756C162.74 32.4756 161.676 32.2792 160.444 32.0042L161.36 27.7523Z" fill="#004EA6"/>
<path d="M66.7201 14.1719H56.2388L40.9375 32.0523H40.967L40.9375 32.0819H49.21L58.5953 19.8261L56.0053 32.0819H62.9286L66.7201 14.1719Z" fill="#004EA6"/>
<path d="M183.289 14.1719H193.559L194.269 25.0758L199.868 14.1719H210L206.205 32.0819H199.769L202.726 18.0894L195.531 32.0819H190.11L188.878 18.0894L185.921 32.0819H179.494L183.289 14.1719Z" fill="#004EA6"/>
<path d="M38.1735 11.0686C42.2579 18.1395 36.96 28.8246 26.3445 34.9402C24.8942 35.7773 23.4242 36.4863 21.9443 37.0575L22.852 38.2787C26.157 37.6976 29.6199 36.4568 32.9446 34.5364C43.5602 28.4208 48.8581 17.7258 44.7737 10.6648C41.9126 5.71125 35.194 3.84997 27.775 5.29762C32.3823 5.71124 36.1905 7.65131 38.1735 11.0686Z" fill="#004EA6"/>
<path d="M25.792 4.77366L33.0873 0.428346L30.7323 11.6913L25.792 4.77366Z" fill="#004EA6"/>
<path d="M7.97885 32.6228C3.89443 25.552 9.19234 14.8668 19.8079 8.75122C21.2581 7.91414 22.7281 7.20509 24.208 6.6339L23.3004 5.41275C19.9953 5.99378 16.5325 7.23463 13.2077 9.15499C2.59215 15.2706 -2.70576 25.9656 1.37866 33.0266C4.23973 37.9802 10.9583 39.8414 18.3773 38.3938C13.77 37.9802 9.96187 36.0401 7.97885 32.6228Z" fill="#004EA6"/>
<path d="M20.3603 38.9178L13.065 43.2631L15.4201 32.0001L20.3603 38.9178Z" fill="#004EA6"/>
<path d="M42.9047 25.0924L43.8887 20.6641L30.0134 20.6641L29.0293 25.0924L42.9047 25.0924Z" fill="#004EA6"/>
</svg>

<svg width="210" height="44" fill="none" xmlns="http://www.w3.org/2000/svg"><path d="M70.22 14.172h18.938l-.936 4.389H76.2l-.443 2.15h9.735l-.936 4.388h-9.735l-.493 2.367h12.613l-.986 4.616h-19.53l3.794-17.91zm22.808 0h6.934l-1.304 6.197 7.685-6.197h9.383l-8.84 6.463 5.778 11.447h-8.613l-3.279-7.283-3.576 2.467-1.007 4.816h-6.934l3.773-17.91zm29.65 4.539h-6.458l.966-4.54h19.896l-.966 4.54h-6.488l-2.839 13.37h-6.951l2.84-13.37zm16.438-4.539h13.381c4.487 0 6.824 1.676 6.824 4.517 0 4.487-3.698 7.1-9.289 7.1h-6.459l-1.331 6.293h-6.932l3.806-17.91zm6.114 3.846l-.809 3.866h3.796c2.071 0 3.472-.572 3.472-2.544.019-1.036-.888-1.332-2.663-1.332h-3.796v.01zm16.13 9.734c.641.216 1.203.344 1.725.344 1.034 0 1.852-.471 2.443-1.453l-5.813-12.471h7.587l2.345 7.836 4.838-7.826h7.962l-10.149 12.912c-1.951 2.475-2.641 3.094-3.35 3.712-1.36 1.228-3.232 1.67-4.907 1.67-1.301 0-2.365-.197-3.597-.472l.916-4.252zm-94.64-13.58H56.24l-15.301 17.88h.029l-.03.03h8.273l9.385-12.256-2.59 12.256h6.924l3.791-17.91zm116.569 0h10.27l.71 10.904 5.599-10.904H210l-3.795 17.91h-6.436l2.957-13.993-7.195 13.993h-5.421l-1.232-13.993-2.957 13.993h-6.427l3.795-17.91zM38.173 11.069c4.085 7.07-1.213 17.756-11.829 23.871a31.527 31.527 0 01-4.4 2.117l.908 1.222c3.305-.581 6.768-1.822 10.093-3.743 10.615-6.115 15.913-16.81 11.829-23.871-2.861-4.954-9.58-6.815-16.999-5.367 4.607.413 8.416 2.353 10.398 5.77z" fill="#004EA6"/><path d="M25.792 4.774L33.087.428l-2.355 11.263-4.94-6.917zM7.979 32.623C3.894 25.552 9.192 14.867 19.808 8.75a31.522 31.522 0 014.4-2.117l-.908-1.22c-3.305.58-6.768 1.822-10.092 3.742-10.616 6.116-15.914 16.81-11.83 23.872 2.862 4.953 9.58 6.814 17 5.367-4.608-.414-8.416-2.354-10.4-5.771z" fill="#004EA6"/><path d="M20.36 38.918l-7.295 4.345L15.42 32l4.94 6.918zm22.545-13.826l.984-4.428H30.013l-.984 4.428h13.876z" fill="#004EA6"/></svg>
